X:1
T:Drimcong
L:1/8
M:6/8
I:linebreak $
K:G
V:1 treble 
V:1
 AAA edB | def gfg | AAA edB | dge dBG | AAA edB | def g2 a | bag age |$ dge dBG :| efg aga | %9
 bag a3 | efg aga | bga ged | efg aga | bag a2 e |$ def g2 e | dge dBG :| %16
